X: 3
T: McDonagh's
R: reel
M: 4/4
L: 1/8
K: Dmaj
||:BdA=c BEED|E2BE E2BE|BAFA D3E|FDAD FDFA|(3Bcd Ac BEED|E2BE E2BE|BAGF GABc|dBAG FDFA:||||:d2ef gfed|fBB2 fBB2|d2ef gfed|ceae ceae|dfef gfed|fBBA B2fg|afge fdec|dBAG FDFA:||


Tune 1963	Setting 25486

